src/assets/images/my-market-list-logo.svg

<?xml version="1.0" encoding="UTF-8"?>
<svg width="99px" height="99px" viewBox="0 0 99 99" version="1.1" xmlns="http://www.w3.org/2000/svg" xmlns:xlink="http://www.w3.org/1999/xlink">
    <!-- Generator: Sketch 53.2 (72643) - https://sketchapp.com -->
    <title>logo</title>
    <desc>Created with Sketch.</desc>
    <g id="Welcome" stroke="none" stroke-width="1" fill="none" fill-rule="evenodd">
        <g id="Home" transform="translate(-113.000000, -13.000000)">
            <g id="logo" transform="translate(115.000000, 15.000000)">
                <circle id="Oval" stroke="#68C20C" stroke-width="2" fill="#FFFFFF" cx="47.5" cy="47.5" r="48.5"></circle>
                <g id="shopping-basket" transform="translate(8.000000, 11.000000)" fill-rule="nonzero">
                    <path d="M57.6072221,25.4321741 L56.4375545,28.880977 C55.1096212,32.7968117 50.7880632,34.9259638 46.8317336,33.6111038 L43.9948137,32.6673039 L24.1708681,26.0801769 C20.2145385,24.7653169 18.0657777,20.4847585 19.3921502,16.5689238 L20.5618177,13.1201209 C21.3664129,10.7463258 23.2710638,9.02996062 25.5262715,8.33884005 C26.9931164,7.88772625 28.6087061,7.87010824 30.1676386,8.38844866 L52.8300649,15.9210755 C56.7849898,17.235781 58.9351553,21.514794 57.6072221,25.4321741 Z" id="Path" fill="#78B9EB"></path>
                    <path d="M46,31.637253 L44.4780375,33 L25.0639586,26.2310492 C21.1894275,24.8798953 19.0850931,20.481181 20.3840423,16.4572579 L21.5295266,12.9132581 C22.3174865,10.4739393 24.1827581,8.7101975 26.3913386,8 L46,31.637253 Z" id="Path" fill="#5AAAE7"></path>
                    <polygon id="Path" fill="#C70024" points="42 33.6885938 28.639489 45.2541509 26.6218262 47 2 18.3131484 4.01923987 16.5655571 17.3797508 5"></polygon>
                    <polygon id="Path" fill="#FF0C38" points="42 32.7947773 28.9844915 44 5 16.2052227 18.0155085 5"></polygon>
                    <path d="M18.3698237,6.60305087 L3.35261684,19.5601349 C2.59313162,20.2143872 1.43544409,20.129131 0.780357069,19.3688131 L0.44001586,18.9734353 C-0.215071162,18.2131175 -0.128357062,17.0541607 0.631128152,16.3983554 L1.81921991,15.3727959 L15.6467837,3.44127141 C16.3997538,2.79183322 17.5397572,2.86901418 18.1981018,3.60836742 C18.2061683,3.61644269 18.2142347,3.62451796 18.2205947,3.63243794 L18.5593847,4.02781567 C19.2143166,4.78844414 19.1293089,5.94724563 18.3698237,6.60305087 Z" id="Path" fill="#A5001E"></path>
                    <path d="M18,3.60927741 L4.49078476,15.558649 C3.75674805,16.2090586 2.64311556,16.1300514 2,15.3913031 L15.5076999,3.44193146 C16.2434035,2.79152184 17.357036,2.86881825 18,3.60927741 Z" id="Path" fill="#C70024"></path>
                    <circle id="Oval" fill="#A5001E" cx="20" cy="23" r="7"></circle>
                    <path d="M24.5285644,22.1926873 L23.2864871,21.2147468 L23.6964824,19.5287467 C23.8578076,18.8655877 23.4513125,18.196856 22.7886698,18.0354051 C22.1257089,17.8737949 21.457975,18.2807659 21.2964906,18.9439249 L21.0199785,20.0807688 C20.5523898,19.9678805 19.9988882,19.8814231 19.3952708,19.8814231 C17.8074738,19.8814231 15.6065135,20.4775497 14.138199,23.3177489 C13.8591413,23.8576701 14.0136253,24.5208291 14.5030105,24.8813073 C14.6584491,24.9957878 16.075375,26 17.9240925,26 C19.1738065,26 20.8489482,25.5379382 22.247896,23.5425701 L23.0012246,24.1356715 C23.2276209,24.3139999 23.4966554,24.4002982 23.7639399,24.4002982 C24.129706,24.4002982 24.4918128,24.2385288 24.7353916,23.9285238 C25.1573193,23.391787 25.0647243,22.6146252 24.5285644,22.1926873 Z M17.9240925,23.5276032 C17.6125788,23.5276032 17.3144294,23.4720348 17.048895,23.3936977 C17.6806727,22.6956691 18.456275,22.3533422 19.3952708,22.3533422 C19.6114848,22.3533422 19.8200621,22.3716527 20.0154344,22.4009495 C19.4059303,23.1496106 18.7058996,23.5276032 17.9240925,23.5276032 Z" id="Shape" fill="#FFCD00"></path>
                    <path d="M74.2801634,7.10197261 L57.5716322,0.216095372 C56.1418845,-0.373045181 54.4948866,0.283854968 53.8929453,1.68319792 L51.5700752,7.08357634 C51.5530022,7.09170136 51.5523757,7.09200796 51.5694487,7.08388294 L44.7367961,12.4261598 C44.5037259,12.6082829 44.2844395,12.8071159 44.0836357,13.0189796 C43.5897713,13.5356082 43.1909832,14.1356332 42.9087302,14.7919202 L37.326167,27.7701822 C36.4371171,29.8371564 37.4279786,32.2173272 39.5398638,33.0876241 L43.4762122,34.7095619 L43.4760556,34.7098685 L62.8211932,42.6808191 C64.933235,43.5509627 67.3662182,42.580866 68.2552681,40.5137384 L73.8422171,27.5253585 C74.2372459,26.6066181 74.393096,25.6063209 74.2953569,24.6141487 L73.4567428,16.1023478 L75.7792996,10.7027359 C76.3810843,9.30293304 75.7099111,7.69095986 74.2801634,7.10197261 Z" id="Path" fill="#FF728B"></path>
                    <path d="M63.440961,44.6682806 L44,36.3852649 L51.2277509,19.0102872 C51.6278847,18.0485684 52.2595672,17.203301 53.0651867,16.5519066 L59.9324709,11 L74.1287201,17.0486167 L74.9714881,25.8941352 C75.0697113,26.9251512 74.9132467,27.9647697 74.5161037,28.9193197 L68.9014806,42.4161988 C68.0084991,44.5642551 65.5634645,45.5726499 63.440961,44.6682806 Z" id="Path" fill="#FF3F62"></path>
                    <path d="M73,16.1468672 L66.1900445,21.6571911 C65.9684403,21.8369347 65.7613025,22.0295838 65.5699026,22.2356048 C65.086316,22.7488693 64.6965216,23.3425208 64.4176883,23.990282 L57.0963263,41 L38.5777557,33.3744232 C36.4343636,32.4918758 35.4287195,30.0776203 36.3310331,27.9811814 L41.9968817,14.8179149 C42.2833456,14.1522726 42.6880832,13.5436943 43.1893155,13.0197012 C43.393115,12.8046619 43.6156729,12.6029945 43.8522203,12.4184308 L50.7868083,7 L73,16.1468672 Z" id="Path" fill="#FF728B"></path>
                    <path d="M66,22.1951548 C65.5347666,22.7072637 65.1597659,23.2995787 64.891515,23.9458815 L61.5489309,32 L40,22.7973986 L43.3216317,14.7941652 C43.5972236,14.1300216 43.9866004,13.5228134 44.4688097,13 L66,22.1951548 Z" id="Path" fill="#FFA5B5"></path>
                    <path d="M73.9727685,24.8601288 L73.1601803,16 L66.6694766,21.655673 C66.4577672,21.8406314 66.2601516,22.0372394 66.0781452,22.2486888 C65.6169915,22.7756367 65.2452498,23.3850897 64.9785294,24.0507165 L58,41.5084577 L62.8703767,43.6673162 C64.914274,44.5740751 67.2686884,43.5632671 68.1282558,41.4127071 L73.533589,27.8912759 C73.9162419,26.9348863 74.0668784,25.8942361 73.9727685,24.8601288 Z" id="Path" fill="#FF0C38"></path>
                    <g id="Group" transform="translate(36.000000, 8.000000)" fill="#FF3F62">
                        <path d="M16.9361057,16.386815 C16.9914065,17.7900347 15.623252,18.8406936 14.3190488,18.3546936 C14.2892358,18.3436127 14.2595772,18.3317514 14.2299187,18.3191098 C14.2004146,18.3064682 14.1712195,18.2933584 14.1426423,18.2794682 C12.8870976,17.6767283 12.6745447,15.9537225 13.7067236,15.0129364 L15.9984634,12.924104 C16.3055528,12.6441156 16.7964634,12.8530925 16.8129919,13.270578 L16.9361057,16.386815 Z" id="Path"></path>
                        <path d="M18.8822927,1.96147977 L18.8120081,2.13440462 L12.072878,7.57342197 C11.8427154,7.75914451 11.6267642,7.96109827 11.4285772,8.17756647 C10.9424553,8.70258382 10.5491707,9.31484393 10.2709675,9.98204046 L3.30460976,26.8548555 L2.63466667,26.5704971 C0.55300813,25.6852717 -0.425569106,23.2621387 0.452292683,21.1572312 L5.95719512,7.94486705 C6.23539837,7.27767052 6.62868293,6.66712717 7.11634959,6.14039306 C7.31453659,5.92392486 7.5304878,5.7219711 7.76065041,5.53624855 L14.4982358,0.0987919075 C14.4982358,0.0972312139 14.4997805,0.0972312139 14.4997805,0.0972312139 L18.8822927,1.96147977 Z" id="Path"></path>
                    </g>
                    <path d="M48,15.9366735 C47.9517622,15.9845675 47.9069367,16.0342176 47.8619561,16.0837081 C47.3738389,16.6207594 46.9789401,17.2470532 46.699595,17.9295426 L43.4293494,26 L39,24.0815262 L42.3681172,15.8458346 C42.6474623,15.1633451 43.0423611,14.5388074 43.5320293,14 L48,15.9366735 Z" id="Path" fill="#FF728B"></path>
                    <path d="M73.3971192,17 L51,8.03828453 L53.3770962,2.67243569 C53.9930895,1.28204002 55.6785357,0.62934004 57.1416601,1.21471368 L74.2400827,8.05656318 C75.7032071,8.64193682 76.3900484,10.2436032 75.7740551,11.6339988 L73.3971192,17 Z" id="Path" fill="#FF3F62"></path>
                    <path d="M60,0.9580201 L56.5702549,9 L52,7.1512423 L54.3876606,1.69968999 C55.0078531,0.286771701 56.7020257,-0.376428528 58.1726068,0.217897931 L60,0.9580201 Z" id="Path" fill="#FF0C38"></path>
                    <path d="M76,34 L64.3356985,69.4627995 C63.837906,70.9750465 62.4131189,72 60.804005,72 L19.3871019,72 C17.7844529,72 16.3628193,70.983155 15.8602964,69.4788607 L4,34 L76,34 Z" id="Path" fill="#7ED63E"></path>
                    <path d="M75,34 L63.3377637,69.4627995 C62.8400594,70.9750465 61.4155245,72 59.8066956,72 L25.382801,72 C23.7804357,72 22.3590539,70.983155 21.85662,69.4788607 L10,34 L75,34 Z" id="Path" fill="#A4E276"></path>
                    <path d="M76.7677209,33.4937891 C76.5388905,33.1836278 76.1727619,33 75.78328,33 L11.2275605,33 C10.5556454,33 10.010841,33.5363784 10.010841,34.1979014 C10.010841,34.8594244 10.5556454,35.3958028 11.2275605,35.3958028 L74.1081161,35.3958028 L69.7224091,48.6708587 L62.5302384,48.6708587 L64.4966125,39.5751099 C64.6364185,38.9279377 64.2171573,38.2917213 63.5599752,38.1540776 C62.9029498,38.0161253 62.2564256,38.4290564 62.1166196,39.0762287 L60.0424131,48.6708587 L51.8455829,48.6708587 L52.6764253,39.4311396 C52.7356705,38.7720855 52.2411774,38.1906489 51.5716134,38.13232 C50.9039302,38.0736826 50.3116356,38.5608364 50.2523905,39.2200447 L49.4025833,48.6708587 L41.2165677,48.6708587 L41.2165677,39.3255922 C41.2165677,38.6640691 40.6717633,38.1276908 39.9998483,38.1276908 C39.3279332,38.1276908 38.7831288,38.6640691 38.7831288,39.3255922 L38.7831288,48.6708587 L30.8681048,48.6708587 L30.0182977,39.2200447 C29.9590525,38.5609907 29.3669147,38.0749171 28.6990748,38.13232 C28.0296675,38.1906489 27.5351744,38.7720855 27.5942628,39.4311396 L28.4251052,48.6708587 L26.9366105,48.6708587 C26.2646955,48.6708587 25.7198911,49.2072371 25.7198911,49.8687601 C25.7198911,50.5302832 26.2646955,51.0666615 26.9366105,51.0666615 L28.6404566,51.0666615 L29.4067249,59.5886891 L22.5885195,59.5886891 L20.7461213,51.0666615 L22.0698895,51.0666615 C22.7418045,51.0666615 23.2866089,50.5302832 23.2866089,49.8687601 C23.2866089,49.2072371 22.7418045,48.6708587 22.0698895,48.6708587 L20.228275,48.6708587 L18.1540685,39.0762287 C18.0141058,38.4292107 17.368522,38.0155081 16.7107129,38.1540776 C16.0535308,38.2917213 15.6341129,38.9279377 15.7740756,39.5751099 L17.7404497,48.6708587 L10.357378,48.6708587 L5.90020072,35.3958028 L6.36083945,35.3958028 C7.03275446,35.3958028 7.57755888,34.8594244 7.57755888,34.1979014 C7.57755888,33.5363784 7.03275446,33 6.36083945,33 L4.21672997,33 C3.82615096,33 3.45939539,33.184708 3.230565,33.496258 C3.00189133,33.8079623 2.93888461,34.208703 3.06144993,34.5737983 L14.8495068,69.6837435 C15.5154659,71.6670782 17.3884271,72.9998457 19.5101237,72.9998457 L23.9810935,72.9998457 C23.9820339,72.9998457 23.9828176,73 23.9839147,73 C23.9853253,73 23.9870494,72.9998457 23.98846,72.9998457 L31.7233976,72.9998457 C31.7238678,72.9998457 31.7244947,72.9998457 31.7249649,72.9998457 C31.7255919,72.9998457 31.7260621,72.9998457 31.726689,72.9998457 L48.5438424,72.9998457 C48.5444693,72.9998457 48.5449395,72.9998457 48.5455665,72.9998457 C48.5460367,72.9998457 48.5466636,72.9998457 48.5471338,72.9998457 L56.2820714,72.9998457 C56.283482,72.9998457 56.2852061,73 56.2866167,73 C56.2875571,73 56.2883407,72.9998457 56.2894379,72.9998457 L60.678593,72.9998457 C62.8111042,72.9998457 64.6870433,71.6584368 65.3467331,69.6618316 L68.9586485,58.728416 C69.1664767,58.0992979 68.816805,57.4234241 68.177804,57.2188103 C67.5386462,57.0143507 66.8524684,57.35846 66.6444836,57.9875781 L66.1155092,59.5889978 L60.1699939,59.5889978 L62.0123921,51.0669701 L68.9310635,51.0669701 L68.1500622,53.4309853 C67.942234,54.0601034 68.2919057,54.7359772 68.9309067,54.940591 C69.0559798,54.9805571 69.1826202,54.9996914 69.3073798,54.9996914 C69.8202106,54.9996914 70.2969929,54.6779569 70.4642271,54.1719775 L76.9402841,34.5687061 C77.0608119,34.2036108 76.996708,33.8042589 76.7677209,33.4937891 Z M49.187232,51.0666615 L48.4209636,59.5886891 L41.2165677,59.5886891 L41.2165677,51.0666615 L49.187232,51.0666615 Z M49.8734097,70.6038886 L50.6482984,61.9844919 L57.1640089,61.9844919 L55.3004517,70.6038886 L49.8734097,70.6038886 Z M47.4305668,70.6038886 L41.2165677,70.6038886 L41.2165677,61.9844919 L48.2054555,61.9844919 L47.4305668,70.6038886 Z M32.8401213,70.6038886 L32.0652326,61.9844919 L38.7834423,61.9844919 L38.7834423,70.6038886 L32.8401213,70.6038886 Z M31.0834561,51.0666615 L38.7832856,51.0666615 L38.7832856,59.5886891 L31.8498812,59.5886891 L31.0834561,51.0666615 Z M29.6223897,61.9844919 L30.3972784,70.6038886 L24.9699229,70.6038886 L23.1065225,61.9844919 L29.6223897,61.9844919 Z M18.258296,51.0666615 L20.1006942,59.5886891 L14.0230529,59.5886891 L11.1618893,51.0666615 L18.258296,51.0666615 Z M17.1599101,68.9316411 L14.8274074,61.9843376 L20.6186973,61.9843376 L22.4822544,70.6037343 L19.5102804,70.6037343 C18.4402632,70.6038886 17.4957893,69.9318725 17.1599101,68.9316411 Z M65.3241635,61.9844919 L63.0328816,68.9205308 C62.7002939,69.9273976 61.7544093,70.6037343 60.6789064,70.6037343 L57.7889039,70.6037343 L59.6524611,61.9843376 L65.3241635,61.9843376 L65.3241635,61.9844919 Z M57.6821686,59.5886891 L50.8639632,59.5886891 L51.6302316,51.0666615 L59.5247235,51.0666615 L57.6821686,59.5886891 Z" id="Shape" fill="#5EAC24"></path>
                    <path d="M80,34.0006771 C80,35.3759197 79.4160938,36.6264275 78.4748437,37.5313191 C77.5335937,38.4377154 76.235,39 74.806875,39 L5.193125,39 C2.33703125,39 0,36.7511623 0,34.0008276 C0,32.6255849 0.58390625,31.3750771 1.52515625,30.4686809 C2.46640625,29.5622846 3.765,29 5.193125,29 L74.806875,29 C77.5659375,29 79.8414063,31.1009314 79.991875,33.7220174 C79.9967187,33.8138006 80,33.9072388 80,34.0006771 Z" id="Path" fill="#4E901E"></path>
                    <path d="M80,33 L10.1973466,33 C7.43079709,33 5.15072039,31.2203104 5,29 L74.8010867,29 C77.5674795,29 79.8491229,30.7796896 80,33 Z" id="Path" fill="#5EAC24"></path>
                    <path d="M44,7.44318804 L44,31.5551311 C44,32.4487433 43.6497361,33.2648826 43.0776072,33.8785534 C42.4363882,34.5664881 41.5172559,35 40.5,35 C38.5747904,35 37,33.4499312 37,31.5552839 L37,7.44318804 C37,5.54991596 38.5749457,4 40.5,4 C41.4626048,4 42.3384199,4.38751719 42.9715655,5.01219001 C43.0069645,5.04702989 43.0422082,5.08339782 43.0776072,5.12129383 C43.6497361,5.73343652 44,6.55125671 44,7.44318804 Z" id="Path" fill="#47821C"></path>
                    <path d="M44,7.4222345 L44,32.5761714 C44,33.5084009 43.6206172,34.3598096 43.0009249,35 C42.379551,34.3598096 42,33.5084009 42,32.5761714 L42,7.4222345 C42,6.49159909 42.3793828,5.63859634 43.0009249,5 C43.6206172,5.63859634 44,6.4917585 44,7.4222345 Z" id="Path" fill="#4E901E"></path>
                    <circle id="Oval" fill="#A4E276" cx="40" cy="32" r="1"></circle>
                </g>
            </g>
        </g>
    </g>
</svg>

<svg xmlns="http://www.w3.org/2000/svg" width="99" height="99">
    <g fill="none" fill-rule="evenodd" transform="translate(2 2)">
        <circle cx="47.5" cy="47.5" r="48.5" fill="#FFF" stroke="#68C20C" stroke-width="2"/>
        <g fill-rule="nonzero" transform="translate(8 11)">
            <path fill="#78B9EB"
                  d="M57.607 25.432l-1.17 3.449c-1.327 3.916-5.649 6.045-9.605 4.73l-2.837-.944L24.17 26.08c-3.956-1.315-6.105-5.595-4.779-9.511l1.17-3.449c.804-2.374 2.71-4.09 4.964-4.781a7.595 7.595 0 0 1 4.642.05L52.83 15.92c3.955 1.315 6.105 5.594 4.777 9.511z"/>
            <path fill="#5AAAE7"
                  d="M46 31.637L44.478 33l-19.414-6.769c-3.875-1.351-5.979-5.75-4.68-9.774l1.146-3.544c.787-2.44 2.653-4.203 4.861-4.913L46 31.637z"/>
            <path fill="#C70024" d="M42 33.689L28.64 45.254 26.621 47 2 18.313l2.02-1.747L17.38 5z"/>
            <path fill="#FF0C38" d="M42 32.795L28.984 44 5 16.205 18.016 5z"/>
            <path fill="#A5001E"
                  d="M18.37 6.603L3.353 19.56A1.83 1.83 0 0 1 .78 19.37l-.34-.396a1.833 1.833 0 0 1 .191-2.575l1.188-1.025L15.647 3.44a1.826 1.826 0 0 1 2.574.191l.338.396c.655.76.57 1.92-.19 2.575z"/>
            <path fill="#C70024"
                  d="M18 3.61L4.49 15.558A1.753 1.753 0 0 1 2 15.39l13.508-11.95A1.753 1.753 0 0 1 18 3.61z"/>
            <circle cx="20" cy="23" r="7" fill="#A5001E"/>
            <path fill="#FFCD00"
                  d="M24.529 22.193l-1.243-.978.41-1.686a1.236 1.236 0 0 0-2.4-.585l-.276 1.137a6.947 6.947 0 0 0-1.625-.2c-1.588 0-3.788.597-5.257 3.437-.279.54-.124 1.203.365 1.563.155.115 1.572 1.119 3.421 1.119 1.25 0 2.925-.462 4.324-2.457l.753.593a1.232 1.232 0 0 0 1.734-.207 1.237 1.237 0 0 0-.206-1.736zm-6.605 1.335a3.11 3.11 0 0 1-.875-.134c.632-.698 1.407-1.04 2.346-1.04.216 0 .425.018.62.047-.61.749-1.31 1.127-2.09 1.127z"/>
            <path fill="#FF728B"
                  d="M74.28 7.102L57.572.216c-1.43-.589-3.077.068-3.68 1.467l-2.322 5.4-6.833 5.343a5.942 5.942 0 0 0-.653.593 5.995 5.995 0 0 0-1.175 1.773L37.326 27.77c-.889 2.067.102 4.447 2.214 5.318l3.936 1.622 19.345 7.97c2.112.871 4.545-.1 5.434-2.166l5.587-12.989c.395-.918.551-1.919.453-2.91l-.838-8.513 2.322-5.4c.602-1.4-.07-3.011-1.499-3.6z"/>
            <path fill="#FF3F62"
                  d="M63.441 44.668L44 36.385l7.228-17.375a6.246 6.246 0 0 1 1.837-2.458L59.932 11l14.197 6.049.842 8.845a6.318 6.318 0 0 1-.455 3.025l-5.615 13.497c-.893 2.148-3.338 3.157-5.46 2.252z"/>
            <path fill="#FF728B"
                  d="M73 16.147l-6.81 5.51c-.222.18-.429.373-.62.579a6.042 6.042 0 0 0-1.152 1.754L57.096 41l-18.518-7.626c-2.144-.882-3.15-3.296-2.247-5.393l5.666-13.163a6.08 6.08 0 0 1 1.192-1.798c.204-.215.427-.417.663-.602L50.787 7 73 16.147z"/>
            <path fill="#FFA5B5"
                  d="M66 22.195a6.053 6.053 0 0 0-1.108 1.75L61.549 32 40 22.797l3.322-8.003A6.089 6.089 0 0 1 44.469 13L66 22.195z"/>
            <path fill="#FF0C38"
                  d="M73.973 24.86L73.16 16l-6.49 5.656a6.28 6.28 0 0 0-1.69 2.395l-6.98 17.457 4.87 2.16c2.044.906 4.399-.105 5.258-2.255l5.406-13.522a6.565 6.565 0 0 0 .439-3.03z"/>
            <g fill="#FF3F62">
                <path d="M52.936 24.387c.055 1.403-1.313 2.454-2.617 1.968a2.038 2.038 0 0 1-.176-.076c-1.256-.602-1.468-2.325-.436-3.266l2.291-2.089a.487.487 0 0 1 .815.347l.123 3.116zM54.882 9.961l-.07.173-6.74 5.44a6.132 6.132 0 0 0-1.802 2.409l-6.965 16.872-.67-.285c-2.082-.885-3.06-3.308-2.183-5.413l5.505-13.212a6.128 6.128 0 0 1 1.804-2.409L50.498 8.1c0-.002.002-.002.002-.002l4.382 1.864z"/>
            </g>
            <path fill="#FF728B"
                  d="M48 15.937a6.288 6.288 0 0 0-1.3 1.993L43.43 26 39 24.082l3.368-8.236A6.283 6.283 0 0 1 43.532 14L48 15.937z"/>
            <path fill="#FF3F62"
                  d="M73.397 17L51 8.038l2.377-5.366c.616-1.39 2.302-2.043 3.765-1.457L74.24 8.057c1.463.585 2.15 2.187 1.534 3.577L73.397 17z"/>
            <path fill="#FF0C38" d="M60 .958L56.57 9 52 7.151 54.388 1.7c.62-1.413 2.314-2.076 3.785-1.482L60 .958z"/>
            <path fill="#7ED63E"
                  d="M76 34L64.336 69.463A3.71 3.71 0 0 1 60.804 72H19.387a3.711 3.711 0 0 1-3.527-2.521L4 34h72z"/>
            <path fill="#A4E276"
                  d="M75 34L63.338 69.463A3.71 3.71 0 0 1 59.807 72H25.383a3.71 3.71 0 0 1-3.526-2.521L10 34h65z"/>
            <path fill="#5EAC24"
                  d="M76.768 33.494a1.223 1.223 0 0 0-.985-.494H11.228c-.672 0-1.217.536-1.217 1.198 0 .661.545 1.198 1.217 1.198h62.88L69.722 48.67H62.53l1.967-9.096a1.198 1.198 0 0 0-.937-1.42 1.216 1.216 0 0 0-1.443.921l-2.075 9.595h-8.196l.83-9.24c.06-.659-.435-1.24-1.104-1.299a1.212 1.212 0 0 0-1.32 1.088l-.85 9.45h-8.185v-9.344c0-.662-.545-1.198-1.217-1.198s-1.217.536-1.217 1.198v9.345h-7.915l-.85-9.451a1.213 1.213 0 0 0-1.319-1.088c-.67.059-1.164.64-1.105 1.3l.831 9.239h-1.488c-.672 0-1.217.536-1.217 1.198 0 .661.545 1.198 1.217 1.198h1.703l.767 8.522h-6.818l-1.843-8.522h1.324c.672 0 1.217-.537 1.217-1.198 0-.662-.545-1.198-1.217-1.198h-1.842l-2.074-9.595a1.216 1.216 0 0 0-1.443-.922 1.198 1.198 0 0 0-.937 1.421l1.966 9.096h-7.383L5.9 35.396h.46c.673 0 1.218-.537 1.218-1.198 0-.662-.545-1.198-1.217-1.198H4.217c-.39 0-.758.185-.986.496a1.183 1.183 0 0 0-.17 1.078l11.789 35.11C15.515 71.667 17.388 73 19.51 73H60.68c2.132 0 4.008-1.342 4.668-3.338l3.612-10.934a1.194 1.194 0 0 0-.781-1.51 1.221 1.221 0 0 0-1.534.77l-.528 1.601H60.17l1.842-8.522h6.92l-.782 2.364c-.208.63.142 1.305.78 1.51a1.216 1.216 0 0 0 1.533-.769l6.477-19.603c.12-.365.057-.765-.172-1.075zm-27.58 17.573l-.767 8.522h-7.204v-8.522h7.97zm.685 19.537l.775-8.62h6.516l-1.864 8.62h-5.427zm-2.442 0h-6.214v-8.62h6.988l-.774 8.62zm-14.59 0l-.776-8.62h6.718v8.62H32.84zm-1.758-19.537h7.7v8.522H31.85l-.767-8.522zm-1.46 10.917l.774 8.62H24.97l-1.863-8.62h6.515zM18.257 51.067l1.843 8.522h-6.078l-2.861-8.522h7.096zM17.16 68.932l-2.333-6.948h5.792l1.863 8.62H19.51a2.468 2.468 0 0 1-2.35-1.672zm48.164-6.948l-2.291 6.937a2.466 2.466 0 0 1-2.354 1.683h-2.89l1.863-8.62h5.672zm-7.642-2.395h-6.818l.766-8.522h7.895l-1.843 8.522z"/>
            <path fill="#4E901E"
                  d="M80 34c0 1.376-.584 2.626-1.525 3.531A5.279 5.279 0 0 1 74.807 39H5.193C2.337 39 0 36.751 0 34c0-1.374.584-2.625 1.525-3.531A5.279 5.279 0 0 1 5.193 29h69.614c2.759 0 5.034 2.1 5.185 4.722.005.092.008.185.008.279z"/>
            <path fill="#5EAC24" d="M80 33H10.197C7.431 33 5.151 31.22 5 29h69.801c2.766 0 5.048 1.78 5.199 4z"/>
            <path fill="#47821C"
                  d="M44 7.443v24.112c0 .894-.35 1.71-.922 2.324A3.518 3.518 0 0 1 40.5 35c-1.925 0-3.5-1.55-3.5-3.445V7.443C37 5.55 38.575 4 40.5 4a3.513 3.513 0 0 1 2.578 1.121c.572.612.922 1.43.922 2.322z"/>
            <path fill="#4E901E"
                  d="M44 7.422v25.154c0 .932-.38 1.784-1 2.424a3.47 3.47 0 0 1-1-2.424V7.422c0-.93.38-1.783 1-2.422.62.639 1 1.492 1 2.422z"/>
            <circle cx="40" cy="32" r="1" fill="#A4E276"/>
        </g>
    </g>
</svg>
